X:1
T:Title
%%score { ( 1 3 ) | ( 2 4 ) }
L:1/8
Q:1/4=100
M:4/4
K:G
V:1 treble nm="Grand Piano"
V:3 treble 
V:2 bass 
V:4 bass 
V:1
 [B,DG]3 [CDF] [B,DG]2 [DFA]2 | [DGB]3 [DFA] [DGB]2 [DGd]2 | [EGc]2 [EGc]2 [DGB]2 [DGB]2 | %3
w: J.~H.~Burke * * *|||
 [DFA]6 z2 | [B,DG]3 [CDF] [B,DG]2 [DFA]2 | [DGB]3 [DGB] [CGc]2 [Ge]2 | d6 z2 | G6 z2 | %8
w: |||||
 [Ge]3 [Ge] [Ge]2 [EGc]2 | d3 d d2 B2 | [DAc]2 [DAc]2 [DGB]2 [DGd]2 | [DFA]6 z2 | %12
w: ||||
 [B,DG]3 [CDF] [B,DG]2 [DFA]2 | [DGB]3 [DGB] [CGc]2 [Ge]2 | d6 z2 | G6 z2 |] %16
w: ||||
V:2
 G,3 A, G,2 D,2 | G,3 D, G,2 B,,2 | C,2 C,2 G,,2 B,,2 | D,6 z2 | G,3 A, G,2 D,2 | %5
 G,3 =F, E,2 [C,C]2 | B,4 A,2 [D,CD]2 | [G,B,D]6 z2 | [C,C]3 [C,C] [C,C]2 C,2 | %9
 [G,,B,G]3 [G,,B,G][K:treble] [G,B,G]2 [G,DG]2 | F,2 F,2 G,2 B,,2 | D,6 z2 | G,3 A, G,2 D,2 | %13
 G,3 =F, E,2 [C,C]2 | B,4 A,2 [D,CD]2 | [G,B,D]6 z2 |] %16
V:3
 x8 | x8 | x8 | x8 | x8 | x8 | G4 F2 F2 | x8 | x8 | x8 | x8 | x8 | x8 | x8 | G4 F2 F2 | x8 |] %16
V:4
 x8 | x8 | x8 | x8 | x8 | x8 | D,6 z2 | x8 | x8 | x4[K:treble] x4 | x8 | x8 | x8 | x8 | D,6 z2 | %15
 x8 |] %16

